X:87
T: Der Kuckuck war ein reicher Mann (Band 1), S. 241
N: P0862
O: Lothringen
S: PINCK, Louis: Verklingende Weisen, Bd 1, Metz 1928]
N: Melodievariante zu "Et wor a Meedchen zu Gtzen
R: Spottlied]
M: 6/8
L: 1/8
K: F
C | F2FFGA | A2GG2c | A4-A
A | c2cc2d | B2BB2
B | A2AcBA | A2GG2
c | A2AGFG | F3
G3 | A2AGAG | F4-F

